local/share/icons/dracula-icons-main/22/actions/fitsize.svg

<svg xmlns="http://www.w3.org/2000/svg" width="22" height="22" version="1.1" viewBox="0 0 22 22">
 <defs>
  <style id="current-color-scheme" type="text/css">
   .ColorScheme-Text { color:#FFFFFF; } .ColorScheme-Highlight { color:#5294e2; }
  </style>
 </defs>
 <path style="fill:currentColor" class="ColorScheme-Text" d="m 4,5 v 2 3 2 5 h 2 v -5 h 5 V 10 5 H 6 Z m 2,2 h 3 v 3 H 6 Z m 6,3 v 1.537109 L 13.683594,13.5 12,15.462891 V 17 h 1.316406 L 15,15.037109 16.683594,17 H 18 V 15.462891 L 16.316406,13.5 18,11.537109 V 10 H 16.683594 L 15,11.962891 13.316406,10 Z"/>
</svg>

<?xml version="1.0" encoding="UTF-8"?>
<svg xmlns="http://www.w3.org/2000/svg" xmlns:xlink="http://www.w3.org/1999/xlink" width="22" height="22" viewBox="0 0 22 22">
<path fill-rule="nonzero" fill="rgb(100%, 100%, 100%)" fill-opacity="1" d="M 4 5 L 4 17 L 6 17 L 6 12 L 11 12 L 11 5 Z M 6 7 L 9 7 L 9 10 L 6 10 Z M 12 10 L 12 11.535156 L 13.683594 13.5 L 12 15.464844 L 12 17 L 13.316406 17 L 15 15.035156 L 16.683594 17 L 18 17 L 18 15.464844 L 16.316406 13.5 L 18 11.535156 L 18 10 L 16.683594 10 L 15 11.964844 L 13.316406 10 Z M 12 10 "/>
</svg>
